packages/sources/icons/src/vitamix/ruler-line.svg

<svg width="16" height="16" viewBox="0 0 16 16" xmlns="http://www.w3.org/2000/svg"><path fill-rule="evenodd" clip-rule="evenodd" d="M15.0714 4.562L11.7714 1.262C11.511 1.00174 11.089 1.00174 10.8287 1.262L0.928711 11.162C0.668457 11.4223 0.668457 11.8443 0.928711 12.1047L4.22871 15.4047C4.48904 15.6649 4.91104 15.6649 5.17138 15.4047L15.0714 5.50466C15.3316 5.24433 15.3316 4.82233 15.0714 4.562ZM2.34346 11.6333L4.22879 9.74733L5.17146 10.6913L6.11479 9.74799L5.17146 8.80533L6.58612 7.39133L8.00012 8.80533L8.94279 7.86133L7.52879 6.44799L8.94279 5.03333L9.88546 5.97599L10.8288 5.03333L9.88546 4.09066L11.3001 2.67666L13.6568 5.03333L4.70012 13.99L2.34346 11.6333Z"/></svg>

<svg width="16" height="16" xmlns="http://www.w3.org/2000/svg"><path fill-rule="evenodd" clip-rule="evenodd" d="m15.071 4.562-3.3-3.3a.667.667 0 0 0-.942 0l-9.9 9.9a.667.667 0 0 0 0 .943l3.3 3.3c.26.26.682.26.942 0l9.9-9.9a.667.667 0 0 0 0-.943ZM2.343 11.633 4.23 9.747l.942.944.944-.943-.944-.943 1.415-1.414L8 8.805l.943-.944-1.414-1.413 1.414-1.415.942.943.944-.943-.944-.942L11.3 2.677l2.357 2.356L4.7 13.99l-2.357-2.357Z"/></svg>
